X:1
T:Bright Angels on the Wing
T:Bright Angels on the Wing
T:William Lesley Mason, 1899
T:Thomas Hastings (1784-1872)
T:Public Domain Courtesy of the Cyber Hymnal™
T:Public Domain Courtesy of the Cyber Hymnal™
C:William Lesley Mason, 1899
Z:Public Domain
Z:Courtesy of the Cyber Hymnal™
%%score ( 1 2 ) ( 3 4 )
L:1/8
Q:1/4=105
M:4/4
K:Db
V:1 treble 
V:2 treble 
V:3 bass 
V:4 bass 
V:1
|: ([DF][EG]) | [FA]2 [FA]2 [FA]2 [Fd]2 | [Gc]6 ([CE][DF]) | [EG]2 [EG]2 [EG]2 [GB]2 | %4
w: 1.~Bright *|an- gels on the|wing, At *|si- lent hour of|
w: 2.~Then *|from the blaz- ing|sky, Is *|heard th’en- rap- tured|
 [FA]6 (F=G) | [CA]3 [=E=G] [CF]2 ([CF][EG]) | [FA]3 [=E=G] [CF]2 [Ac]2 | [Ae]2 [EA]2 [Ec]2 [DB]2 | %8
w: night, Pro- *|claim a- loud the *|new- born King, ’Mid|floods of heav’n- ly|
w: strain: “Glo- *|ry to God, to *|God on high, Peace|and good will to|
 [CA]6 [CA]2 | (AB) (cd) [Ge]2 [Gc]2 | ([Fd]4 [FA]2) [FA]2 | [FA]3 [EG] [EG]2 [DF]2 | [CE]6 [Gc]2 | %13
w: light. The|wake- * ful * shep- herds|hear * And|trem- ble at the|sound, Till|
w: men.” Ye|woods * and * rocks and|hills, * Re-|ver- ber- ate the|song, Till|
 [Fd]2 [E=A]2 [DB]2 [=DF]2 | [B,A]3 [B,G] [B,G]2 [GB]2 | [=Ge]3 [Gd] [Gc]2 [GB]2 | A6 A2 | %17
w: words of love dis-|pel their fear, And|breathe sweet peace a-|round. Till|
w: man the ho- ly|im- pulse feels, And|rolls the tide a-|long. Till|
 [Ad]3 [Ad] [Fd]2 [Fd]2 | [Gd]3 [Gd] !fermata![=Gd]2 G2 | [FA]2 [Fd]2 [Ge]3 [Fd] | [Fd]6 :| %21
w: words of love dis-|pel their fear, And|breathe sweet peace a-|round.|
w: man the ho- ly|im- pulse feels, And|rolls the tide a-|long.|
 (3(A{c'}Bc) x | [Fd]4 [FA]4 | F2 D2 [DF]2 [FA]2 | [GB]3 [GB] [=GB]2 [Gd]2 | [Ec]6 [Gc]2 | %26
w: |||||
w: |||||
 [Fd]3 [Fd] [Fd]2 [Fd]2 | [Gd]3 [Gd] !fermata![=Gd]2 G2 |"^rit." [FA]2 [Fd]2 [Gd]2 [Gc]2 | [Fd]6 |] %30
w: ||||
w: ||||
V:2
|: x2 | x8 | x8 | x8 | x6 F=G | x8 | x8 | x8 | x8 | G2 G2 x4 | x8 | x8 | x8 | x8 | x8 | x8 | %16
 A6 A2 | x8 | x6 =G2 | x8 | x6 :| ABc | x8 | F2 D2 x4 | x8 | x8 | x8 | x6 =G2 | x8 | x6 |] %30
V:3
|: [D,A,]2 | [D,A,]2 [D,A,]2 [D,A,]2 [D,A,]2 | [E,A,]6 [A,,A,]2 | %3
w: ~|~ ~ ~ ~|~ ~|
 [C,A,]2 [A,,A,]2 [C,A,]2 [A,,A,]2 | [F,A,]6 F,=G, | [F,A,]3 [F,B,] [F,A,]2 (A,B,) | %6
w: ~ ~ ~ ~|~ ~ ~|~ ~ ~ ~ *|
 [F,C]3 [F,B,] [F,A,]2 [F,C]2 | [E,C]2 [E,C]2 [E,A,]2 [E,=G,]2 | [A,,A,]6 [A,,A,]2 | %9
w: ~ ~ ~ ~|~ ~ ~ ~|~ ~|
 [A,C]2 [A,C]2 [A,C]2 [A,C]2 | [D,A,]6 [D,A,]2 | [C,A,]3 [C,A,] [D,A,]2 A,2 | A,6 A,2 | %13
w: ~ ~ ~ ~|~ ~|~ ~ ~ ~|~ ~|
 [B,D]2 [F,C]2 [G,B,]2 [B,,A,]2 | [E,G,]3 [E,G,] [E,G,]2 [E,B,]2 | [E,B,]3 [E,B,] [E,E]2 [E,D]2 | %16
w: ~ ~ ~ ~|~ ~ ~ ~|~ ~ ~ ~|
 [A,C]6 [G,C]2 | [F,D]3 [F,D] [_CD]2 [CD]2 | [B,D]3 [B,D] !fermata![=A,D]2 [A,D]2 | %19
w: ~ ~|~ ~ ~ ~|~ ~ ~ ~|
 [_A,D]2 A,2 [A,,A,]3 [D,A,] | [D,A,]6 :| F,B,C | [D,A,]4 [D,A,]4 | %23
w: ~ ~ ~ ~|Glo-|ry to God|on high,|
 [D,A,]2 [D,F,]2 [D,A,]2 [D,D]2 | [A,D]3 [A,D] [E,D]2 [E,B,]2 | A,6 [=A,E]2 | %26
w: Good will to men|be given; Ce- les-|tial peace|
 [B,D]3 [B,D] [_CD]2 [CD]2 | [B,D]3 [B,D] !fermata![=A,D]2 [A,D]2 | %28
w: be- low the sky,|And end- less joy|
 [_A,D]2 [A,D]2 [A,,A,]2 [A,,A,]2 | [D,A,]6 |] %30
w: in Heaven. * *||
V:4
|: x2 | x8 | x8 | x8 | x6 (F,=G,) | x6 F,2 | x8 | x8 | x8 | x8 | x8 | x6 (D,F,) | A,6 A,2 | x8 | %14
 x8 | x8 | x8 | x8 | x8 | x2 A,2 x4 | x6 :| (3(F,{F,,}B,C) x | x8 | x8 | x8 | =A,6 x2 | x8 | x8 | %28
 x8 | x6 |] %30

